X:1
T:Title
%%score { 1 | 2 }
L:1/8
Q:1/4=122
M:4/4
K:G
V:1 treble nm="Grand Piano"
V:2 bass 
V:1
 [DGB]4 [DFA]2 [B,EG]2 | [A,EA]2 [G,CE]4 z2 | [B,DG]4 [DA]2 [DGB]2 | [DFA]6 z2 | %4
w: I.~N.~McHose * *||||
 [DGB]4 [DFA]2 [B,EG]2 | [CEA]2 [G,CE]4 z2 | [G,DG]4 B2 A2 | G6 z2 | d4 [Ac]2 [GB]2 | %9
w: |||||
 [EA]2 [Ec]4 z2 | [Ec]4 B2 A2 | B6 z2 | d4 [Ac]2 [GB]2 | [EA]2 E4 z2 | G4 B2 [DA]2 | [DG]6 z2 |] %16
w: |||||||
V:2
 G,4 D,2 E,2 | C,2 C,4 z2 | G,4 F,2 G,2 | D,6 z2 | G,4 D,2 E,2 | E,2 C,4 z2 | %6
 B,,4 [D,G,D]2 [D,CD]2 | [G,B,D]6 z2 | [G,B,G]4 [F,D]2 [G,D]2 | [C,C]2 [C,G,]4 z2 | %10
 [C,G,]4 [D,G,D]2 [D,F,D]2 | [G,D]6 z2 | [G,B,G]4 [F,D]2 [G,D]2 | [C,C]2 [C,G,C]4 z2 | %14
 [D,G,B,]4 [D,G,D]2 [C,C]2 | [G,B,]6 z2 |] %16

